X:1
T:Church of Christ, O Sleep No More
T:Church of Christ, O Sleep No More
T: William Howard Doane
T:Frances Jane (Fanny) Crosby, 1905
T:Public Domain Courtesy of the Cyber Hymnal™
C:William Howard Doane
Z:Public Domain
Z:Courtesy of the Cyber Hymnal™
%%score ( 1 2 ) ( 3 4 )
L:1/8
Q:1/4=110
M:4/4
K:Bb
V:1 treble 
V:2 treble 
V:3 bass 
V:4 bass 
V:1
 [Fd]3 [Fd] ([Fd][Ec]) [DB]2 | [GB]3 [GB] ([GB][FA]) [EG]2 | [DF]2 [DB]2 [FB]2 [Fd]2 | %3
w: 1.~Church of Christ, * thy|Lord is call- * ing;|Ope thine eyes, be-|
w: 2.~Lo, a- gain * thy|Lord is call- * ing;|Preach the Word, its|
w: 3.~Still a- gain * thy|Lord is call- * ing;|Take the lamp that|
 [Fd]2 [Fc]2 [Fc]4 | [Fd]3 [Fd] (dc) [FB]2 | [GB]3 [GB] ([GB][FA]) [EG]2 | F2 [DB]2 [DB]2 [Ge]2 | %7
w: hold and see,|Pre- cious souls, * in|chains of bond- * age,|Plead- ing now for|
w: truth pro- claim;|Lift thy voice * and,|like a trump- * et,|Sound a- loud Je-|
w: once He gave;|Let its beams * of|peer- less glor- * y|Shine a- far the|
 [Fd]2"^riten." [Ec]2 [DB]4 | [Fc]3 [Fd] [Fe]2 [EA]2 | [DB]3 [Fd] ([Fd][Ec]) [DB]2 | %10
w: aid from thee.|Up and work for|those that per- * ish,|
w: ho- vah’s name.|Bod- ing clouds are|in the dist- * ance,|
w: lost to save.|Do His will and|do it quick- * ly,|
 [Fc]3 [Fd] [Fe]2 [Fe]2 | [Fe]3 [Fd] (d2 c2) | [Fd]3 [Fd] ([Fd][Ec]) [DB]2 | %13
w: Haste, the time will|soon be o’er; *|Fold thy arms * of|
w: Bil- lows foam, and|surg- es roar, *|Dark and wild * the|
w: For the time will|soon be o’er; *|He may come * when|
 [GB]3 [GB] ([GB][FA]) [EG]2 | F2 [DB]2 [DB]2 [Ge]2 | [Fd]2"^riten." [Ec]2 [DB]4 |] %16
w: love a- round * them,|Church of Christ, O|sleep no more.|
w: night is com- * ing,|Church of Christ, O|sleep no more.|
w: least ex- pect- * ed,|Church of Christ, O|sleep no more.|
V:2
 x8 | x8 | x8 | x8 | x4 F2 x2 | x8 | F2 x6 | x8 | x8 | x8 | x8 | x4 F4 | x8 | x8 | F2 x6 | x8 |] %16
V:3
 [B,,B,]3 [B,,B,] [B,,B,]2 [B,,B,]2 | [E,B,]3 [E,B,] [E,B,]2 [E,B,]2 | %2
 B,2 [F,B,]2 [D,B,]2 [B,,B,]2 | [F,B,]2 [F,A,]2 [F,A,]4 | %4
 [B,,B,]3 [B,,B,] ([B,,B,][C,A,]) [D,B,]2 | [E,B,]3 [E,B,] [E,B,]2 [E,B,]2 | %6
 [D,B,]2 [B,,B,]2 [G,B,]2 [E,B,]2 | [F,B,]2 [F,A,]2 [B,,B,]4 | [F,A,]3 [F,B,] [F,C]2 [F,C]2 | %9
 B,3 B, B,2 [B,,B,]2 | [F,A,]3 [F,B,] [F,C]2 [F,C]2 | [A,C]3 B, (B,2 A,2) | B,3 B, B,2 B,2 | %13
 [E,B,]3 [E,B,] [E,B,]2 [E,B,]2 | [D,B,]2 [B,,B,]2 [G,B,]2 [E,B,]2 | [F,B,]2 [F,A,]2 [B,,B,]4 |] %16
V:4
 x8 | x8 | B,2 x6 | x8 | x8 | x8 | x8 | x8 | x8 | B,3 B, (B,F,) x2 | x8 | x3 B, F,4 | %12
 B,3 B, B,2 B,2 | x8 | x8 | x8 |] %16

